rospo-icon-theme-classic-common/22x22/apps/flightgear.svg

<svg height="22" width="22" xmlns="http://www.w3.org/2000/svg"><g transform="translate(-1 -1)"><rect height="20" opacity=".2" rx="1.5" transform="matrix(0 -1 -1 0 0 0)" width="20" x="-22.5" y="-22"/><rect fill="#1e87e4" height="20" rx="1.5" transform="matrix(0 -1 -1 0 0 0)" width="20" x="-22" y="-22"/><path d="m3.5 2c-.831 0-1.5.669-1.5 1.5v.5c0-.831.669-1.5 1.5-1.5h17c .831 0 1.5.669 1.5 1.5v-.5c0-.831-.669-1.5-1.5-1.5z" fill="#fff" opacity=".2"/><path d="m20.001 5.3363q0 .9965-1.707 2.7031l-2.748 2.7486 1.637 8.544.012.069q0 .16-.103.264l-.734.733q-.103.102-.263.102-.241 0-.332-.205l-3.138-6.587-2.8066 2.806q.7786 2.727.7786 2.887 0 .16-.103.263l-.7329.734q-.1031.102-.2634.102-.2062 0-.3207-.184l-1.7753-3.207-3.2069-1.775q-.1948-.102-.1948-.321 0-.16.1031-.263l.733-.744q.1031-.103.2635-.103.1603 0 2.8863.779l2.8061-2.806-6.5858-3.1384q-.2062-.0915-.2062-.3322 0-.1603.1031-.2634l.733-.7329q.1031-.1029.2635-.1029.0458 0 .0687.0114l8.5447 1.6378 2.748-2.7488q1.708-1.7066 2.703-1.7066.367 0 .602.2348.235.2347.235.6013z" fill="#2873b4"/><path d="m20.001 4.8363q0 .9965-1.707 2.7031l-2.748 2.7486 1.637 8.544.012.069q0 .16-.103.264l-.734.733q-.103.102-.263.102-.241 0-.332-.205l-3.138-6.587-2.8066 2.806q.7786 2.727.7786 2.887 0 .16-.103.263l-.7329.734q-.1031.102-.2634.102-.2062 0-.3207-.184l-1.7753-3.207-3.2069-1.775q-.1948-.102-.1948-.321 0-.16.1031-.263l.733-.744q.1031-.103.2635-.103.1603 0 2.8863.779l2.8061-2.806-6.5858-3.1384q-.2062-.0915-.2062-.3322 0-.1603.1031-.2634l.733-.7329q.1031-.1029.2635-.1029.0458 0 .0687.0114l8.5447 1.6378 2.748-2.7488q1.708-1.7066 2.703-1.7066.367 0 .602.2348.235.2347.235.6013z" fill="#fff"/></g></svg>

<svg xmlns="http://www.w3.org/2000/svg" width="22" height="22" version="1">
 <g transform="translate(-1,-1)">
  <rect style="opacity:0.2" width="20" height="20" x="-22.5" y="-22" rx="1.5" ry="1.5" transform="matrix(0,-1,-1,0,0,0)"/>
  <rect style="fill:#1e87e4" width="20" height="20" x="-22" y="-22" rx="1.5" ry="1.5" transform="matrix(0,-1,-1,0,0,0)"/>
  <path style="opacity:0.2;fill:#ffffff" d="M 3.5,2 C 2.669,2 2,2.669 2,3.5 V 4 C 2,3.169 2.669,2.5 3.5,2.5 H 20.5 C 21.331,2.5 22,3.169 22,4 V 3.5 C 22,2.669 21.331,2 20.5,2 Z"/>
  <path style="fill:#2873b4" d="M 20.001,5.3363 Q 20.001,6.3328 18.294,8.0394 L 15.546,10.788 17.183,19.332 17.195,19.401 Q 17.195,19.561 17.092,19.665 L 16.358,20.398 Q 16.255,20.5 16.095,20.5 15.854,20.5 15.763,20.295 L 12.625,13.708 9.8184,16.514 Q 10.597,19.241 10.597,19.401 10.597,19.561 10.494,19.664 L 9.7611,20.398 Q 9.658,20.5 9.4977,20.5 9.2915,20.5 9.177,20.316 L 7.4017,17.109 4.1948,15.334 Q 4,15.232 4,15.013 4,14.853 4.1031,14.75 L 4.8361,14.006 Q 4.9392,13.903 5.0996,13.903 5.2599,13.903 7.9859,14.682 L 10.792,11.876 4.2062,8.7376 Q 4,8.6461 4,8.4054 4,8.2451 4.1031,8.142 L 4.8361,7.4091 Q 4.9392,7.3062 5.0996,7.3062 5.1454,7.3062 5.1683,7.3176 L 13.713,8.9554 16.461,6.2066 Q 18.169,4.5 19.164,4.5 19.531,4.5 19.766,4.7348 20.001,4.9695 20.001,5.3361 Z"/>
  <path style="fill:#ffffff" d="M 20.001,4.8363 Q 20.001,5.8328 18.294,7.5394 L 15.546,10.288 17.183,18.832 17.195,18.901 Q 17.195,19.061 17.092,19.165 L 16.358,19.898 Q 16.255,20 16.095,20 15.854,20 15.763,19.795 L 12.625,13.208 9.8184,16.014 Q 10.597,18.741 10.597,18.901 10.597,19.061 10.494,19.164 L 9.7611,19.898 Q 9.658,20 9.4977,20 9.2915,20 9.177,19.816 L 7.4017,16.609 4.1948,14.834 Q 4,14.732 4,14.513 4,14.353 4.1031,14.25 L 4.8361,13.506 Q 4.9392,13.403 5.0996,13.403 5.2599,13.403 7.9859,14.182 L 10.792,11.376 4.2062,8.2376 Q 4,8.1461 4,7.9054 4,7.7451 4.1031,7.642 L 4.8361,6.9091 Q 4.9392,6.8062 5.0996,6.8062 5.1454,6.8062 5.1683,6.8176 L 13.713,8.4554 16.461,5.7066 Q 18.169,4 19.164,4 19.531,4 19.766,4.2348 20.001,4.4695 20.001,4.8361 Z"/>
 </g>
</svg>
